images/ico_android_w.svg

<svg width="27" height="31" viewBox="0 0 27 31" fill="none" xmlns="http://www.w3.org/2000/svg">
<path d="M2.00954 10C1.45012 10 0.975475 10.1889 0.585309 10.5668C0.195142 10.9447 0 11.3982 0 11.9274V20.0534C0 20.5959 0.195083 21.0552 0.585309 21.4331C0.975475 21.811 1.45012 22 2.00954 22C2.56855 22 3.04032 21.8111 3.42444 21.4331C3.80779 21.0552 4 20.5959 4 20.0534V11.9274C4 11.3981 3.80492 10.9447 3.41469 10.5668C3.02447 10.1889 2.55598 10 2.00954 10Z" fill="white"/>
<path d="M17.681 2.63763L18.9859 0.379448C19.0715 0.229947 19.0411 0.115305 18.8942 0.0346923C18.7348 -0.0348191 18.6123 0.000403474 18.5267 0.13787L17.2035 2.41411C16.0392 1.93121 14.8078 1.68932 13.5092 1.68932C12.2104 1.68932 10.9789 1.93126 9.81501 2.41411L8.49178 0.13787C8.4058 0.000403474 8.28331 -0.0345078 8.12427 0.0346923C7.97707 0.115668 7.9466 0.229947 8.03259 0.379448L9.33756 2.63763C8.01434 3.27065 6.96047 4.15226 6.17635 5.28436C5.39223 6.41708 5 7.6549 5 9H22C22 7.65521 21.6077 6.41734 20.8236 5.28436C20.0395 4.15226 18.9917 3.27065 17.681 2.63763ZM10.1365 5.9222C9.99539 6.0549 9.82684 6.12093 9.63092 6.12093C9.43461 6.12093 9.26949 6.0549 9.13479 5.9222C9.00008 5.79013 8.93273 5.63264 8.93273 5.44823C8.93273 5.26444 9.00008 5.10664 9.13479 4.97425C9.26949 4.84218 9.435 4.77615 9.63092 4.77615C9.82684 4.77615 9.99539 4.84218 10.1365 4.97425C10.2773 5.10695 10.348 5.26444 10.348 5.44823C10.3476 5.63233 10.277 5.79013 10.1365 5.9222ZM17.883 5.9222C17.748 6.0549 17.5825 6.12093 17.3869 6.12093C17.1905 6.12093 17.022 6.0549 16.8812 5.9222C16.7401 5.79013 16.6697 5.63264 16.6697 5.44823C16.6697 5.26444 16.7401 5.10664 16.8812 4.97425C17.022 4.84218 17.1905 4.77615 17.3869 4.77615C17.5828 4.77615 17.7479 4.84218 17.883 4.97425C18.0178 5.10695 18.085 5.26444 18.085 5.44823C18.085 5.63233 18.0177 5.79013 17.883 5.9222Z" fill="white"/>
<path d="M5 22.6454C5 23.2282 5.19742 23.7216 5.59232 24.1264C5.98755 24.5313 6.46876 24.7337 7.03683 24.7337H8.40736L8.42613 29.0442C8.42613 29.5885 8.6113 30.0507 8.98162 30.4304C9.35194 30.8102 9.79665 31 10.315 31C10.8456 31 11.2964 30.8102 11.6668 30.4304C12.0371 30.0507 12.2223 29.5886 12.2223 29.0442V24.7341H14.7779V29.0442C14.7779 29.5885 14.963 30.0507 15.3334 30.4304C15.7038 30.8102 16.1542 31 16.6852 31C17.2158 31 17.6666 30.8102 18.037 30.4304C18.4074 30.0507 18.5925 29.5886 18.5925 29.0442V24.7341H19.9815C20.537 24.7341 21.012 24.5316 21.4076 24.1268C21.8025 23.7219 22 23.2286 22 22.6458V10H5V22.6454Z" fill="white"/>
<path d="M24.9903 10C24.4438 10 23.9756 10.1862 23.5853 10.5574C23.1951 10.9294 23 11.3863 23 11.9274V20.0534C23 20.5959 23.195 21.0552 23.5853 21.4331C23.9756 21.8111 24.4441 22 24.9903 22C25.5494 22 26.0244 21.8111 26.4147 21.4331C26.805 21.0552 27 20.5959 27 20.0534V11.9274C27 11.3863 26.805 10.9294 26.4147 10.5574C26.0244 10.1862 25.5494 10 24.9903 10Z" fill="white"/>
</svg>

<svg width="27" height="31" fill="none" xmlns="http://www.w3.org/2000/svg"><path d="M2.01 10a1.97 1.97 0 00-1.425.567c-.39.378-.585.831-.585 1.36v8.126c0 .543.195 1.002.585 1.38.39.378.865.567 1.425.567a1.94 1.94 0 001.414-.567c.384-.378.576-.837.576-1.38v-8.126c0-.529-.195-.982-.585-1.36A1.948 1.948 0 002.01 10zm15.671-7.362L18.986.379c.085-.15.055-.264-.092-.344-.16-.07-.282-.035-.367.103l-1.324 2.276a9.547 9.547 0 00-3.694-.725c-1.299 0-2.53.242-3.694.725L8.492.138C8.406 0 8.283-.035 8.124.035c-.147.08-.177.195-.091.344l1.305 2.259C8.014 3.27 6.96 4.152 6.176 5.284 5.392 6.417 5 7.654 5 9h17c0-1.345-.392-2.583-1.176-3.716-.785-1.132-1.832-2.013-3.143-2.646zm-7.545 3.284a.712.712 0 01-.505.199.679.679 0 01-.496-.199.64.64 0 01-.202-.474.64.64 0 01.202-.474.682.682 0 01.496-.198c.196 0 .364.066.505.198.141.133.212.29.212.474a.63.63 0 01-.212.474zm7.747 0a.68.68 0 01-.496.199.711.711 0 01-.506-.199.626.626 0 01-.211-.474c0-.184.07-.341.211-.474a.713.713 0 01.506-.198c.196 0 .36.066.496.198a.64.64 0 01.202.474.64.64 0 01-.202.474zM5 22.645c0 .583.197 1.077.592 1.481.396.405.877.608 1.445.608h1.37l.02 4.31c0 .544.184 1.007.555 1.386.37.38.815.57 1.333.57.53 0 .981-.19 1.352-.57.37-.38.555-.841.555-1.386v-4.31h2.556v4.31c0 .544.185 1.007.555 1.386.37.38.821.57 1.352.57.53 0 .982-.19 1.352-.57.37-.38.556-.841.556-1.386v-4.31h1.389c.555 0 1.03-.202 1.426-.607A2.04 2.04 0 0022 22.646V10H5v12.645zM24.99 10a1.97 1.97 0 00-1.405.557 1.82 1.82 0 00-.585 1.37v8.126c0 .543.195 1.002.585 1.38.39.378.86.567 1.405.567.56 0 1.034-.189 1.425-.567.39-.378.585-.837.585-1.38v-8.126a1.82 1.82 0 00-.585-1.37A1.991 1.991 0 0024.99 10z" fill="#fff"/></svg>
